Sliced Mon, 2019-5-20 9:54:29 AM

Printer Settings:
Printer name____________________FT5-R2
Fillament diameter______________1.75
Nozzle width____________________0.4
Printing feed rate______________500
Layer height____________________0.2
Extrusion modifier______________1
Offsets_________________________(150, 150)
First layer printing feed rate__250
First layer height______________0.2
First layer extrusion modifier__1.1
First layer Z Squish____________0
Travel feed rate________________5000
Travel retraction_______________0
Travel compensation_____________0.0457
Travel Z-Gap____________________1
End offsets_____________________(10, 10)
-Extrusion constant_____________0.41575168807678786
-Extrusion per distance_________0.03326013504614304



;FLAVOR:Marlin
;Layer height: 0.2
;Generated with Python
M140 S60
M105
M190 S60
M104 S195
M105
M109 S195
M82 ;absolute extrusion mode

G21 ;metric values
G90 ;absolute positioning
M82 ;set extruder to absolute mode
M107 ;start with the fan off
G28 X0 Y0 ;move X/Y to min endstops
G28 Z0 ;move Z to min endstops

;M206 Z0.05 ;set z home

G1 Z15.0 F9000 ;move the platform down 15mm
G92 E0 ;zero the extruded length
G1 F9000

M117 Prepping...
G1 X20 Y20 Z0.3 ;move to start
G1 F1200 X280 Y20 E18.54826 ;make line
M204 S5000 ;acc 5000
M205 X30 Y30 ;x/y jerk 30
;G1 F3000 E15.54826 ;retract 3mm
;G1 F300 Z1.3 ;raise up
;G1 F3000 E18.54826 ;prime 3mm
G92 E0 ;zero the extruded length

;Setting Feed
G1 F500.00000000

;Layer 1
M117 1/124
G1 X150.00000000 Y140.00000000 Z0.20000000 E0.00000000
G1 X150.63423920 Y140.02013324 Z0.20000000 E0.02321606
G1 X151.26592454 Y140.08045187 Z0.20000000 E0.04643212
G1 X151.89251244 Y140.18071303 Z0.20000000 E0.06964817
G1 X152.51147987 Y140.32051299 Z0.20000000 E0.09286423
G1 X153.12033446 Y140.49928882 Z0.20000000 E0.11608029
G1 X153.71662456 Y140.71632067 Z0.20000000 E0.13929635
G1 X154.29794912 Y140.97073462 Z0.20000000 E0.16251240
G1 X154.86196736 Y141.26150623 Z0.20000000 E0.18572846
G1 X155.40640817 Y141.58746467 Z0.20000000 E0.20894452
G1 X155.92907929 Y141.94729742 Z0.20000000 E0.23216058
G1 X156.42787610 Y142.33955557 Z0.20000000 E0.25537664
G1 X156.90079011 Y142.76265962 Z0.20000000 E0.27859269
G1 X157.34591709 Y143.21490588 Z0.20000000 E0.30180875
G1 X157.76146464 Y143.69447333 Z0.20000000 E0.32502481
G1 X158.14575952 Y144.19943090 Z0.20000000 E0.34824087
G1 X158.49725430 Y144.72774532 Z0.20000000 E0.37145692
G1 X158.81453363 Y145.27728925 Z0.20000000 E0.39467298
G1 X159.09631995 Y145.84584987 Z0.20000000 E0.41788904
G1 X159.34147860 Y146.43113778 Z0.20000000 E0.44110510
G1 X159.54902241 Y147.03079625 Z0.20000000 E0.46432116
G1 X159.71811568 Y147.64241064 Z0.20000000 E0.48753721
G1 X159.84807753 Y148.26351822 Z0.20000000 E0.51075327
G1 X159.93838464 Y148.89161800 Z0.20000000 E0.53396933
G1 X159.98867339 Y149.52418084 Z0.20000000 E0.55718539
G1 X159.99874128 Y150.15865964 Z0.20000000 E0.58040144
G1 X159.96854776 Y150.79249957 Z0.20000000 E0.60361750
G1 X159.89821442 Y151.42314838 Z0.20000000 E0.62683356
G1 X159.78802446 Y152.04806668 Z0.20000000 E0.65004962
G1 X159.63842159 Y152.66473814 Z0.20000000 E0.67326568
G1 X159.45000819 Y153.27067963 Z0.20000000 E0.69648173
G1 X159.22354294 Y153.86345126 Z0.20000000 E0.71969779
G1 X158.95993774 Y154.44066613 Z0.20000000 E0.74291385
G1 X158.66025404 Y155.00000000 Z0.20000000 E0.76612991
G1 X158.32569855 Y155.53920064 Z0.20000000 E0.78934596
G1 X157.95761841 Y156.05609687 Z0.20000000 E0.81256202
G1 X157.55749574 Y156.54860734 Z0.20000000 E0.83577808
G1 X157.12694171 Y157.01474888 Z0.20000000 E0.85899414
G1 X156.66769001 Y157.45264450 Z0.20000000 E0.88221020
G1 X156.18158986 Y157.86053095 Z0.20000000 E0.90542625
G1 X155.67059864 Y158.23676581 Z0.20000000 E0.92864231
G1 X155.13677392 Y158.57983413 Z0.20000000 E0.95185837
G1 X154.58226522 Y158.88835449 Z0.20000000 E0.97507443
G1 X154.00930535 Y159.16108457 Z0.20000000 E0.99829048
G1 X153.42020143 Y159.39692621 Z0.20000000 E1.02150654
G1 X152.81732557 Y159.59492974 Z0.20000000 E1.04472260
G1 X152.20310533 Y159.75429787 Z0.20000000 E1.06793866
G1 X151.58001396 Y159.87438889 Z0.20000000 E1.09115471
G1 X150.95056043 Y159.95471923 Z0.20000000 E1.11437077
G1 X150.31727933 Y159.99496542 Z0.20000000 E1.13758683
G1 X149.68272067 Y159.99496542 Z0.20000000 E1.16080289
G1 X149.04943957 Y159.95471923 Z0.20000000 E1.18401895
G1 X148.41998604 Y159.87438889 Z0.20000000 E1.20723500
G1 X147.79689467 Y159.75429787 Z0.20000000 E1.23045106
G1 X147.18267443 Y159.59492974 Z0.20000000 E1.25366712
G1 X146.57979857 Y159.39692621 Z0.20000000 E1.27688318
G1 X145.99069465 Y159.16108457 Z0.20000000 E1.30009923
G1 X145.41773478 Y158.88835449 Z0.20000000 E1.32331529
G1 X144.86322608 Y158.57983413 Z0.20000000 E1.34653135
G1 X144.32940136 Y158.23676581 Z0.20000000 E1.36974741
G1 X143.81841014 Y157.86053095 Z0.20000000 E1.39296347
G1 X143.33230999 Y157.45264450 Z0.20000000 E1.41617952
G1 X142.87305829 Y157.01474888 Z0.20000000 E1.43939558
G1 X142.44250426 Y156.54860734 Z0.20000000 E1.46261164
G1 X142.04238159 Y156.05609687 Z0.20000000 E1.48582770
G1 X141.67430145 Y155.53920064 Z0.20000000 E1.50904375
G1 X141.33974596 Y155.00000000 Z0.20000000 E1.53225981
G1 X141.04006226 Y154.44066613 Z0.20000000 E1.55547587
G1 X140.77645706 Y153.86345126 Z0.20000000 E1.57869193
G1 X140.54999181 Y153.27067963 Z0.20000000 E1.60190799
G1 X140.36157841 Y152.66473814 Z0.20000000 E1.62512404
G1 X140.21197554 Y152.04806668 Z0.20000000 E1.64834010
G1 X140.10178558 Y151.42314838 Z0.20000000 E1.67155616
G1 X140.03145224 Y150.79249957 Z0.20000000 E1.69477222
G1 X140.00125872 Y150.15865964 Z0.20000000 E1.71798827
G1 X140.01132661 Y149.52418084 Z0.20000000 E1.74120433
G1 X140.06161536 Y148.89161800 Z0.20000000 E1.76442039
G1 X140.15192247 Y148.26351822 Z0.20000000 E1.78763645
G1 X140.28188432 Y147.64241064 Z0.20000000 E1.81085251
G1 X140.45097759 Y147.03079625 Z0.20000000 E1.83406856
G1 X140.65852140 Y146.43113778 Z0.20000000 E1.85728462
G1 X140.90368005 Y145.84584987 Z0.20000000 E1.88050068
G1 X141.18546637 Y145.27728925 Z0.20000000 E1.90371674
G1 X141.50274570 Y144.72774532 Z0.20000000 E1.92693279
G1 X141.85424048 Y144.19943090 Z0.20000000 E1.95014885
G1 X142.23853536 Y143.69447333 Z0.20000000 E1.97336491
G1 X142.65408291 Y143.21490588 Z0.20000000 E1.99658097
G1 X143.09920989 Y142.76265962 Z0.20000000 E2.01979703
G1 X143.57212390 Y142.33955557 Z0.20000000 E2.04301308
G1 X144.07092071 Y141.94729742 Z0.20000000 E2.06622914
G1 X144.59359183 Y141.58746467 Z0.20000000 E2.08944520
G1 X145.13803264 Y141.26150623 Z0.20000000 E2.11266126
G1 X145.70205088 Y140.97073462 Z0.20000000 E2.13587731
G1 X146.28337544 Y140.71632067 Z0.20000000 E2.15909337
G1 X146.87966554 Y140.49928882 Z0.20000000 E2.18230943
G1 X147.48852013 Y140.32051299 Z0.20000000 E2.20552549
G1 X148.10748756 Y140.18071303 Z0.20000000 E2.22874155
G1 X148.73407546 Y140.08045187 Z0.20000000 E2.25195760
G1 X149.36576080 Y140.02013324 Z0.20000000 E2.27517366
G1 X150.00000000 Y140.00000000 Z0.20000000 E2.29838972

;Layer 2
M117 2/124
G1 X150.00000000 Y140.00000000 Z0.40000000 E2.29838972
G1 X150.63423920 Y140.02013324 Z0.40249452 E2.31962685
G1 X151.26592454 Y140.08045187 Z0.40435967 E2.34109401
G1 X151.89251244 Y140.18071303 Z0.40512487 E2.36269995
G1 X152.51147987 Y140.32051299 Z0.40459705 E2.38431842
G1 X153.12033446 Y140.49928882 Z0.40290940 E2.40582000
G1 X153.71662456 Y140.71632067 Z0.40048770 E2.42710475
G1 X154.29794912 Y140.97073462 Z0.39794296 E2.44812745
G1 X154.86196736 Y141.26150623 Z0.39591720 E2.46890900
G1 X155.40640817 Y141.58746467 Z0.39492155 E2.48953112
G1 X155.92907929 Y141.94729742 Z0.39520719 E2.51011579
G1 X156.42787610 Y142.33955557 Z0.39670206 E2.53079440
G1 X156.90079011 Y142.76265962 Z0.39902901 E2.55167466
G1 X157.34591709 Y143.21490588 Z0.40160094 E2.57281340
G1 X157.76146464 Y143.69447333 Z0.40376895 E2.59420225
G1 X158.14575952 Y144.19943090 Z0.40498605 E2.61576970
G1 X158.49725430 Y144.72774532 Z0.40494516 E2.63739922
G1 X158.81453363 Y145.27728925 Z0.40365660 E2.65895858
G1 X159.09631995 Y145.84584987 Z0.40144548 E2.68033330
G1 X159.34147860 Y146.43113778 Z0.39886966 E2.70145543
G1 X159.54902241 Y147.03079625 Z0.39657902 E2.72232079
G1 X159.71811568 Y147.64241064 Z0.39515151 E2.74298997
G1 X159.84807753 Y148.26351822 Z0.39494727 E2.76357305
G1 X159.93838464 Y148.89161800 Z0.39601784 E2.78420185
G1 X159.98867339 Y149.52418084 Z0.39809312 E2.80499663
G1 X159.99874128 Y150.15865964 Z0.40064950 E2.82603579
G1 X159.96854776 Y150.79249957 Z0.40304202 E2.84733607
G1 X159.89821442 Y151.42314838 Z0.40466703 E2.86884834
G1 X159.78802446 Y152.04806668 Z0.40511454 E2.89046996
G1 X159.63842159 Y152.66473814 Z0.40427165 E2.91207072
G1 X159.45000819 Y153.27067963 Z0.40235101 E2.93352566
G1 X159.22354294 Y153.86345126 Z0.39983721 E2.95474663
G1 X158.95993774 Y154.44066613 Z0.39736449 E2.97570449
G1 X158.66025404 Y155.00000000 Z0.39555670 E2.99643649
G1 X158.32569855 Y155.53920064 Z0.39486997 E3.01703687
G1 X157.95761841 Y156.05609687 Z0.39547755 E3.03763308
G1 X157.55749574 Y156.54860734 Z0.39722615 E3.05835360
G1 X157.12694171 Y157.01474888 Z0.39967459 E3.07929558
G1 X156.66769001 Y157.45264450 Z0.40220514 E3.10050027
G1 X156.18158986 Y157.86053095 Z0.40417933 E3.12194264
G1 X155.67059864 Y158.23676581 Z0.40509906 E3.14353771
G1 X155.13677392 Y158.57983413 Z0.40473230 E3.16516196
G1 X154.58226522 Y158.88835449 Z0.40317157 E3.18668451
G1 X154.00930535 Y159.16108457 Z0.40081065 E3.20800013
G1 X153.42020143 Y159.39692621 Z0.39824521 E3.22905582
G1 X152.81732557 Y159.59492974 Z0.39612249 E3.24986415
G1 X152.20310533 Y159.75429787 Z0.39497808 E3.27050009
G1 X151.58001396 Y159.87438889 Z0.39510071 E3.29108211
G1 X150.95056043 Y159.95471923 Z0.39645943 E3.31174230
G1 X150.31727933 Y159.99496542 Z0.39871144 E3.33259301
G1 X149.68272067 Y159.99496542 Z0.40128856 E3.35369851
G1 X149.04943957 Y159.95471923 Z0.40354057 E3.37505882
G1 X148.41998604 Y159.87438889 Z0.40489929 E3.39660965
G1 X147.79689467 Y159.75429787 Z0.40502192 E3.41823864
G1 X147.18267443 Y159.59492974 Z0.40387751 E3.43981371
G1 X146.57979857 Y159.39692621 Z0.40175479 E3.46121640
G1 X145.99069465 Y159.16108457 Z0.39918935 E3.48237172
G1 X145.41773478 Y158.88835449 Z0.39682843 E3.50326711
G1 X144.86322608 Y158.57983413 Z0.39526770 E3.52395558
G1 X144.32940136 Y158.23676581 Z0.39490094 E3.54454235
G1 X143.81841014 Y157.86053095 Z0.39582067 E3.56515829
G1 X143.33230999 Y157.45264450 Z0.39779486 E3.58592693
G1 X142.87305829 Y157.01474888 Z0.40032541 E3.60693326
G1 X142.44250426 Y156.54860734 Z0.40277385 E3.62820229
G1 X142.04238159 Y156.05609687 Z0.40452245 E3.64969278
G1 X141.67430145 Y155.53920064 Z0.40513003 E3.67130759
G1 X141.33974596 Y155.00000000 Z0.40444330 E3.69291822
G1 X141.04006226 Y154.44066613 Z0.40263551 E3.71439723
G1 X140.77645706 Y153.86345126 Z0.40016279 E3.73565039
G1 X140.54999181 Y153.27067963 Z0.39764899 E3.75664044
G1 X140.36157841 Y152.66473814 Z0.39572835 E3.77739651
G1 X140.21197554 Y152.04806668 Z0.39488546 E3.79800676
G1 X140.10178558 Y151.42314838 Z0.39533297 E3.81859616
G1 X140.03145224 Y150.79249957 Z0.39695798 E3.83929491
G1 X140.00125872 Y150.15865964 Z0.39935050 E3.86020563
G1 X140.01132661 Y149.52418084 Z0.40190688 E3.88137749
G1 X140.06161536 Y148.89161800 Z0.40398216 E3.90279372
G1 X140.15192247 Y148.26351822 Z0.40505273 E3.92437594
G1 X140.28188432 Y147.64241064 Z0.40484849 E3.94600388
G1 X140.45097759 Y147.03079625 Z0.40342098 E3.96754571
G1 X140.65852140 Y146.43113778 Z0.40113034 E3.98889136
G1 X140.90368005 Y145.84584987 Z0.39855452 E4.00998024
G1 X141.18546637 Y145.27728925 Z0.39634340 E4.03081654
G1 X141.50274570 Y144.72774532 Z0.39505484 E4.05146819
G1 X141.85424048 Y144.19943090 Z0.39501395 E4.07204969
G1 X142.23853536 Y143.69447333 Z0.39623105 E4.09269325
G1 X142.65408291 Y143.21490588 Z0.39839906 E4.11351542
G1 X143.09920989 Y142.76265962 Z0.40097099 E4.13458769
G1 X143.57212390 Y142.33955557 Z0.40329794 E4.15591844
G1 X144.07092071 Y141.94729742 Z0.40479281 E4.17745084
G1 X144.59359183 Y141.58746467 Z0.40507845 E4.19907720
G1 X145.13803264 Y141.26150623 Z0.40408280 E4.22066609
G1 X145.70205088 Y140.97073462 Z0.40205704 E4.24209555
G1 X146.28337544 Y140.71632067 Z0.39951230 E4.26328387
G1 X146.87966554 Y140.49928882 Z0.39709060 E4.28421013
G1 X147.48852013 Y140.32051299 Z0.39540295 E4.30491957
G1 X148.10748756 Y140.18071303 Z0.39487513 E4.32551211
G1 X148.73407546 Y140.08045187 Z0.39564033 E4.34611718
G1 X149.36576080 Y140.02013324 Z0.39750548 E4.36686103
G1 X150.00000000 Y140.00000000 Z0.40000000 E4.38783492

;Layer 3
M117 3/124
G1 X150.00000000 Y140.00000000 Z0.60000000 E4.38783492
G1 X150.63423920 Y140.02013324 Z0.60995248 E4.40933393
G1 X151.26592454 Y140.08045187 Z0.61739393 E4.43152069
G1 X151.89251244 Y140.18071303 Z0.62044687 E4.45412238
G1 X152.51147987 Y140.32051299 Z0.61834105 E4.47676152
G1 X153.12033446 Y140.49928882 Z0.61160775 E4.49905117
G1 X153.71662456 Y140.71632067 Z0.60194580 E4.52069257
G1 X154.29794912 Y140.97073462 Z0.59179293 E4.54155051
G1 X154.86196736 Y141.26150623 Z0.58371071 E4.56168746
G1 X155.40640817 Y141.58746467 Z0.57973830 E4.58134778
G1 X155.92907929 Y141.94729742 Z0.58087794 E4.60089609
G1 X156.42787610 Y142.33955557 Z0.58684210 E4.62072529
G1 X156.90079011 Y142.76265962 Z0.59612602 E4.64115737
G1 X157.34591709 Y143.21490588 Z0.60638734 E4.66236226
G1 X157.76146464 Y143.69447333 Z0.61503714 E4.68431486
G1 X158.14575952 Y144.19943090 Z0.61989304 E4.70680147
G1 X158.49725430 Y144.72774532 Z0.61972991 E4.72947363
G1 X158.81453363 Y145.27728925 Z0.61458889 E4.75193606
G1 X159.09631995 Y145.84584987 Z0.60576708 E4.77384642
G1 X159.34147860 Y146.43113778 Z0.59549023 E4.79500164
G1 X159.54902241 Y147.03079625 Z0.58635120 E4.81538918
G1 X159.71811568 Y147.64241064 Z0.58065578 E4.83519018
G1 X159.84807753 Y148.26351822 Z0.57984093 E4.85473377
G1 X159.93838464 Y148.89161800 Z0.58411224 E4.87441402
G1 X159.98867339 Y149.52418084 Z0.59239205 E4.89459053
G1 X159.99874128 Y150.15865964 Z0.60259135 E4.91549769
G1 X159.96854776 Y150.79249957 Z0.61213686 E4.93718553
G1 X159.89821442 Y151.42314838 Z0.61862022 E4.95950714
G1 X159.78802446 Y152.04806668 Z0.62040568 E4.98215569
G1 X159.63842159 Y152.66473814 Z0.61704275 E5.00474187
G1 X159.45000819 Y153.27067963 Z0.60937992 E5.02689210
G1 X159.22354294 Y153.86345126 Z0.59935053 E5.04834280
G1 X158.95993774 Y154.44066613 Z0.58948499 E5.06900687
G1 X158.66025404 Y155.00000000 Z0.58227241 E5.08899570
G1 X158.32569855 Y155.53920064 Z0.57953252 E5.10859101
G1 X157.95761841 Y156.05609687 Z0.58195660 E5.12817384
G1 X157.55749574 Y156.54860734 Z0.58893305 E5.14812836
G1 X157.12694171 Y157.01474888 Z0.59870171 E5.16874496
G1 X156.66769001 Y157.45264450 Z0.60879793 E5.19014699
G1 X156.18158986 Y157.86053095 Z0.61667442 E5.21225965
G1 X155.67059864 Y158.23676581 Z0.62034393 E5.23482882
G1 X155.13677392 Y158.57983413 Z0.61888065 E5.25748522
G1 X154.58226522 Y158.88835449 Z0.61265375 E5.27983757
G1 X154.00930535 Y159.16108457 Z0.60323430 E5.30157127
G1 X153.42020143 Y159.39692621 Z0.59299883 E5.32252784
G1 X152.81732557 Y159.59492974 Z0.58452976 E5.34274485
G1 X152.20310533 Y159.75429787 Z0.57996386 E5.36244647
G1 X151.58001396 Y159.87438889 Z0.58045310 E5.38198691
G1 X150.95056043 Y159.95471923 Z0.58587404 E5.40176103
G1 X150.31727933 Y159.99496542 Z0.59485899 E5.42210474
G1 X149.68272067 Y159.99496542 Z0.60514101 E5.44321025
G1 X149.04943957 Y159.95471923 Z0.61412596 E5.46507755
G1 X148.41998604 Y159.87438889 Z0.61954690 E5.48751445
G1 X147.79689467 Y159.75429787 Z0.62003614 E5.51018502
G1 X147.18267443 Y159.59492974 Z0.61547024 E5.53269441
G1 X146.57979857 Y159.39692621 Z0.60700117 E5.55468842
G1 X145.99069465 Y159.16108457 Z0.59676570 E5.57594286
